X:69
T:Dunphy's Hornpipe
C:Joe Buchanan's Scottish Tome - Page 245.3
I:245 3
Z:Carl Allison
R:Hornpipe
L:1/8
M:4/4
K:G
((3DEF) | "G"G>DB>D G2 ((3gag) | "C"f>ee>d e>cA>G | "D7"((3FAF) D>G F>GA>c | ((3BAG) A>F G>FE>D |
"G"G>DB>D G2 ((3gag) | "C"f>ee>d e>cA>G | "D7"F>Ad>B c>AF>G | ((3ABA) G>F "G"G2 :|
B>c | "G"(3ded B>d g>dB>d | ((3gfg) b>f g>dB>d | "A7"((3gag) f>g e>d^c>d | ((3efe) d^c "D7"d2 e>f |
"G"((3gag) d>c ((3BdB) G>A | "C"e>cA>G "D"((3FAF) D>F | "G"G>Bd>B "D7"c>AF>G | ((3ABA) G>F "G"G2 :|
W:Errata: Added "G" chord first measure part B for clarity.

